public/SosHandlova.svg

<svg width="108" height="108" viewBox="0 0 108 108" fill="none" xmlns="http://www.w3.org/2000/svg">
<g clip-path="url(#clip0_22_586)">
<path d="M108 -0.00012207H0V108H108V-0.00012207Z" fill="white"/>
<path d="M9.95947 17.0267C9.95947 17.5645 10.0688 18.0111 10.2876 18.3666C10.5063 18.7129 10.798 19 11.1626 19.2279C11.5363 19.4558 11.9647 19.6426 12.4478 19.7885C12.9399 19.9343 13.4504 20.071 13.979 20.1986C14.6899 20.3718 15.3872 20.5632 16.0708 20.7728C16.7635 20.9825 17.3787 21.2741 17.9165 21.6478C18.4543 22.0124 18.8872 22.4909 19.2153 23.0834C19.5526 23.6758 19.7212 24.4369 19.7212 25.3666C19.7212 26.3145 19.5435 27.1348 19.188 27.8275C18.8416 28.5111 18.354 29.0762 17.7251 29.5228C17.1053 29.9603 16.3625 30.2839 15.4966 30.4935C14.6307 30.7123 13.6828 30.8217 12.6528 30.8217C12.1789 30.8217 11.6912 30.7898 11.1899 30.726C10.6978 30.6713 10.2238 30.5938 9.76807 30.4935C9.32145 30.3933 8.91585 30.2793 8.55127 30.1517C8.18669 30.0241 7.89958 29.8965 7.68994 29.7689V27.7318C8.01807 27.8959 8.38721 28.0463 8.79736 28.183C9.20752 28.3197 9.63135 28.4382 10.0688 28.5385C10.5063 28.6296 10.9484 28.7025 11.395 28.7572C11.8416 28.8119 12.2609 28.8392 12.6528 28.8392C13.2909 28.8392 13.897 28.7845 14.4712 28.6752C15.0545 28.5658 15.5649 28.3835 16.0024 28.1283C16.4399 27.8731 16.7863 27.5267 17.0415 27.0892C17.2967 26.6426 17.4243 26.0866 17.4243 25.4213C17.4243 24.8744 17.3104 24.4232 17.0825 24.0677C16.8638 23.7123 16.5675 23.4206 16.1938 23.1927C15.8201 22.9558 15.3872 22.7644 14.895 22.6185C14.4119 22.4727 13.9015 22.336 13.3638 22.2084C12.6528 22.0443 11.9556 21.862 11.272 21.6615C10.5975 21.4519 9.99137 21.1648 9.45361 20.8002C8.92497 20.4356 8.49658 19.9662 8.16846 19.392C7.84945 18.8177 7.68994 18.084 7.68994 17.1908C7.68994 16.2611 7.854 15.4636 8.18213 14.7982C8.51025 14.1237 8.95687 13.5677 9.52197 13.1302C10.0871 12.6927 10.7479 12.3692 11.5044 12.1595C12.2609 11.9499 13.0675 11.8451 13.9243 11.8451C14.8996 11.8451 15.8065 11.9408 16.645 12.1322C17.4927 12.3145 18.2674 12.556 18.9692 12.8568V14.9213C18.2127 14.6023 17.4289 14.3425 16.6177 14.142C15.8156 13.9414 14.9543 13.8366 14.0337 13.8275C13.341 13.8275 12.7394 13.905 12.229 14.0599C11.7186 14.2058 11.2948 14.42 10.9575 14.7025C10.6203 14.976 10.3696 15.3132 10.2056 15.7142C10.0415 16.1062 9.95947 16.5437 9.95947 17.0267ZM37.8501 21.347C37.8501 20.1166 37.6906 19.0319 37.3716 18.0931C37.0526 17.1543 36.6105 16.3705 36.0454 15.7416C35.4894 15.1127 34.8286 14.6387 34.063 14.3197C33.3065 13.9916 32.4907 13.8275 31.6157 13.8275C30.7407 13.8275 29.9204 13.9916 29.1548 14.3197C28.3983 14.6387 27.7375 15.1127 27.1724 15.7416C26.6164 16.3705 26.1789 17.1543 25.8599 18.0931C25.5409 19.0319 25.3813 20.1166 25.3813 21.347C25.3813 22.5775 25.5409 23.6622 25.8599 24.601C26.188 25.5306 26.63 26.3099 27.186 26.9388C27.7511 27.5677 28.4119 28.0417 29.1685 28.3607C29.9341 28.6797 30.759 28.8392 31.6431 28.8392C32.5181 28.8392 33.3293 28.6797 34.0767 28.3607C34.8332 28.0417 35.4894 27.5677 36.0454 26.9388C36.6105 26.3099 37.0526 25.5306 37.3716 24.601C37.6906 23.6622 37.8501 22.5775 37.8501 21.347ZM40.2017 21.347C40.2017 22.7325 40.0011 24.0039 39.6001 25.1615C39.1991 26.3191 38.6248 27.3171 37.8774 28.1556C37.13 28.9942 36.2277 29.6504 35.1704 30.1244C34.1222 30.5892 32.9465 30.8217 31.6431 30.8217C30.2941 30.8217 29.0864 30.5892 28.02 30.1244C26.9536 29.6504 26.0513 28.9942 25.313 28.1556C24.5747 27.3171 24.0096 26.3191 23.6177 25.1615C23.2257 24.0039 23.0298 22.7325 23.0298 21.347C23.0298 19.9525 23.2303 18.6765 23.6313 17.5189C24.0415 16.3523 24.6157 15.3497 25.354 14.5111C26.1014 13.6726 27.0037 13.0209 28.061 12.556C29.1183 12.0821 30.3032 11.8451 31.6157 11.8451C32.9556 11.8451 34.1541 12.0821 35.2114 12.556C36.2778 13.0209 37.1802 13.6726 37.9185 14.5111C38.6567 15.3497 39.2218 16.3523 39.6138 17.5189C40.0057 18.6765 40.2017 19.9525 40.2017 21.347ZM45.8618 17.0267C45.8618 17.5645 45.9712 18.0111 46.1899 18.3666C46.4087 18.7129 46.7004 19 47.0649 19.2279C47.4386 19.4558 47.867 19.6426 48.3501 19.7885C48.8423 19.9343 49.3527 20.071 49.8813 20.1986C50.5923 20.3718 51.2896 20.5632 51.9731 20.7728C52.6659 20.9825 53.2811 21.2741 53.8188 21.6478C54.3566 22.0124 54.7896 22.4909 55.1177 23.0834C55.4549 23.6758 55.6235 24.4369 55.6235 25.3666C55.6235 26.3145 55.4458 27.1348 55.0903 27.8275C54.744 28.5111 54.2563 29.0762 53.6274 29.5228C53.0076 29.9603 52.2648 30.2839 51.3989 30.4935C50.533 30.7123 49.5851 30.8217 48.5552 30.8217C48.0812 30.8217 47.5936 30.7898 47.0923 30.726C46.6001 30.6713 46.1261 30.5938 45.6704 30.4935C45.2238 30.3933 44.8182 30.2793 44.4536 30.1517C44.089 30.0241 43.8019 29.8965 43.5923 29.7689V27.7318C43.9204 27.8959 44.2896 28.0463 44.6997 28.183C45.1099 28.3197 45.5337 28.4382 45.9712 28.5385C46.4087 28.6296 46.8507 28.7025 47.2974 28.7572C47.744 28.8119 48.1632 28.8392 48.5552 28.8392C49.1932 28.8392 49.7993 28.7845 50.3735 28.6752C50.9569 28.5658 51.4673 28.3835 51.9048 28.1283C52.3423 27.8731 52.6886 27.5267 52.9438 27.0892C53.1991 26.6426 53.3267 26.0866 53.3267 25.4213C53.3267 24.8744 53.2127 24.4232 52.9849 24.0677C52.7661 23.7123 52.4699 23.4206 52.0962 23.1927C51.7225 22.9558 51.2896 22.7644 50.7974 22.6185C50.3143 22.4727 49.8039 22.336 49.2661 22.2084C48.5552 22.0443 47.8579 21.862 47.1743 21.6615C46.4998 21.4519 45.8937 21.1648 45.356 20.8002C44.8273 20.4356 44.3989 19.9662 44.0708 19.392C43.7518 18.8177 43.5923 18.084 43.5923 17.1908C43.5923 16.2611 43.7563 15.4636 44.0845 14.7982C44.4126 14.1237 44.8592 13.5677 45.4243 13.1302C45.9894 12.6927 46.6502 12.3692 47.4067 12.1595C48.1632 11.9499 48.9699 11.8451 49.8267 11.8451C50.8019 11.8451 51.7088 11.9408 52.5474 12.1322C53.395 12.3145 54.1698 12.556 54.8716 12.8568V14.9213C54.1151 14.6023 53.3312 14.3425 52.52 14.142C51.7179 13.9414 50.8566 13.8366 49.936 13.8275C49.2433 13.8275 48.6418 13.905 48.1313 14.0599C47.6209 14.2058 47.1971 14.42 46.8599 14.7025C46.5226 14.976 46.272 15.3132 46.1079 15.7142C45.9438 16.1062 45.8618 16.5437 45.8618 17.0267ZM48.8013 11.2025L45.8481 7.82556H47.9536L49.8403 9.91736H49.895L51.7954 7.82556H53.9009L50.9478 11.2025H48.8013Z" fill="#5378E4"/>
<path d="M29.2444 38.4128L27.8696 38.1432L23.8913 58.4304L25.266 58.7L29.2444 38.4128Z" fill="#FF6600"/>
<path d="M51.5464 62.4269L24.1606 57.0565L23.8912 58.4304L51.277 63.8009L51.5464 62.4269Z" fill="#FF6600"/>
<path d="M51.459 62.407L50.0627 62.5101L50.4277 67.4498L51.824 67.3466L51.459 62.407Z" fill="#FF6600"/>
<path d="M57.0293 67.5379L50.6624 66.2893L50.3929 67.6632L56.7599 68.9118L57.0293 67.5379Z" fill="#FF6600"/>
<path d="M59.5823 64.7327L58.4092 63.9684L55.6808 68.1561L56.8539 68.9204L59.5823 64.7327Z" fill="#FF6600"/>
<path d="M86.1419 69.2112L58.4026 63.7715L58.1332 65.1454L85.8724 70.5851L86.1419 69.2112Z" fill="#FF6600"/>
<path d="M97.1997 15.8016L95.825 15.532L85.0602 70.4258L86.4349 70.6954L97.1997 15.8016Z" fill="#FF6600"/>
<path d="M31.1249 41.9079L30.3518 41.7563L27.5621 55.9821L28.3352 56.1337L31.1249 41.9079Z" fill="#FFCE0B"/>
<path d="M27.7166 55.2352C32.7079 55.696 37.8146 54.9027 42.9326 55.3502L42.9326 55.3502C45.2947 55.5537 47.6922 56.0454 49.8219 57.1949L49.8219 57.1949C51.9575 58.358 53.6602 60.2299 54.7355 62.4095L54.0365 62.7629C53.026 60.7188 51.4325 58.9604 49.4503 57.8888L49.4503 57.8888C47.4614 56.8034 45.1642 56.3419 42.8619 56.1347L42.8619 56.1347C37.8698 55.6921 32.7621 56.4854 27.6431 56.0198L27.7166 55.2352Z" fill="#FFCE0B"/>
<path d="M58.7866 43.0939L57.9463 42.9309L54.0099 62.7881L54.8502 62.9511L58.7866 43.0939Z" fill="#FFCE0B"/>
<path d="M54.0224 62.5819C55.3369 60.3813 57.721 59.0322 60.2066 58.7526L60.2066 58.7526C62.9608 58.4468 65.7099 59.0408 68.3054 59.8382V59.8382C73.6947 61.485 78.6468 64.2191 83.7355 66.4837L83.4385 67.1715C78.3097 64.8914 73.3858 62.1678 68.0929 60.5574V60.5574C65.5331 59.7828 62.8828 59.1978 60.2906 59.499C60.2906 59.499 60.2906 59.499 60.2906 59.499C58.0123 59.7602 55.8131 60.9897 54.6613 62.9695L54.0224 62.5819Z" fill="#FFCE0B"/>
<path d="M94.6894 15.0937L93.8147 14.9305L83.0605 67.0811L83.9352 67.2442L94.6894 15.0937Z" fill="#FFCE0B"/>
<path d="M65.296 13.576C67.5464 12.2988 69.8362 11.0463 72.3158 10.4444C74.1439 9.98649 76.0873 10.0205 77.8952 10.3419C84.5377 11.532 90.4691 14.1856 96.9625 16.0027L97.4818 15.1348C91.1047 13.3477 85.1332 10.6849 78.2941 9.44657L78.2941 9.44659C76.3353 9.08945 74.1825 9.06319 72.0862 9.57265L72.0862 9.57268C69.3513 10.2562 66.9301 11.5616 64.672 12.8625L65.296 13.576Z" fill="#FF6600"/>
<path d="M15.3906 79.5546H16.0781V84.3046H22.1406V79.5546H22.8281V89.9999H22.1406V84.9296H16.0781V89.9999H15.3906V79.5546ZM24.5391 89.9999L28.8125 79.5546H29.4844L33.7734 89.9999H33.0156L31.5156 86.2889H26.7812L25.2891 89.9999H24.5391ZM31.2578 85.6639L30.8594 84.6561C29.9896 82.4947 29.4297 81.065 29.1797 80.3671H29.1484C28.9349 80.9608 28.5833 81.8436 28.0938 83.0155C27.9427 83.3749 27.5833 84.2577 27.0156 85.6639H31.2578ZM36.0625 79.5546L40.7656 86.1249L42.7344 88.9452H42.7812C42.7083 88.2889 42.6719 87.2108 42.6719 85.7108V79.5546H43.3594V89.9999H42.7656L38.0469 83.3593L36.0938 80.5936H36.0625C36.125 81.2499 36.1562 82.4712 36.1562 84.2577V89.9999H35.4688V79.5546H36.0625ZM48.1875 79.5546C49.1094 79.5546 49.8255 79.6066 50.3359 79.7108C51.6224 80.0389 52.5781 80.6379 53.2031 81.5077C53.8281 82.3723 54.1406 83.4426 54.1406 84.7186C54.1406 86.052 53.7995 87.177 53.1172 88.0936C52.4401 89.0103 51.513 89.5936 50.3359 89.8436C49.8151 89.9478 49.1745 89.9999 48.4141 89.9999H46.1406V79.5546H48.1875ZM53.4062 84.7343C53.4062 83.5832 53.1458 82.6353 52.625 81.8905C52.1094 81.1405 51.362 80.6327 50.3828 80.3671C50.0807 80.2889 49.7422 80.2395 49.3672 80.2186C48.9922 80.1926 48.5026 80.1796 47.8984 80.1796H46.8281V89.3749H47.9531C48.5208 89.3749 48.9688 89.3671 49.2969 89.3514C49.6302 89.3306 49.9427 89.2863 50.2344 89.2186C51.224 88.9999 52 88.4921 52.5625 87.6952C53.125 86.8983 53.4062 85.9113 53.4062 84.7343ZM56.6094 79.5546H57.2969V89.3749H62.5938V89.9999H56.6094V79.5546ZM63.7422 84.7811C63.7422 83.7447 63.9427 82.8124 64.3438 81.9843C64.75 81.1561 65.3125 80.5103 66.0312 80.0468C66.75 79.578 67.5651 79.3436 68.4766 79.3436C69.4297 79.3436 70.263 79.578 70.9766 80.0468C71.6953 80.5103 72.2474 81.1535 72.6328 81.9764C73.0234 82.7994 73.2188 83.7343 73.2188 84.7811C73.2188 85.8124 73.0182 86.7395 72.6172 87.5624C72.2161 88.3853 71.6562 89.0311 70.9375 89.4999C70.224 89.9634 69.4167 90.1952 68.5156 90.1952C67.5521 90.1952 66.7083 89.9634 65.9844 89.4999C65.2656 89.0363 64.7109 88.3957 64.3203 87.578C63.9349 86.7551 63.7422 85.8228 63.7422 84.7811ZM72.4766 84.7811C72.4766 83.7811 72.2995 82.9191 71.9453 82.1952C71.5911 81.466 71.1094 80.9139 70.5 80.5389C69.8958 80.1587 69.2214 79.9686 68.4766 79.9686C67.7422 79.9686 67.0703 80.1587 66.4609 80.5389C65.8516 80.9139 65.3672 81.466 65.0078 82.1952C64.6536 82.9191 64.4766 83.7811 64.4766 84.7811C64.4766 85.7915 64.6562 86.6587 65.0156 87.3827C65.375 88.1014 65.8594 88.6457 66.4688 89.0155C67.0833 89.3853 67.7656 89.5702 68.5156 89.5702C69.25 89.5702 69.9167 89.3853 70.5156 89.0155C71.1146 88.6457 71.5911 88.1014 71.9453 87.3827C72.2995 86.6587 72.4766 85.7915 72.4766 84.7811ZM75.2891 79.5546L77.3125 85.1327C78.0208 87.0858 78.5052 88.4738 78.7656 89.2968H78.7969C79.0521 88.4582 79.4401 87.3202 79.9609 85.8827L82.2344 79.5546H82.9375L79.1484 89.9999H78.3828L74.5859 79.5546H75.2891ZM82.8516 89.9999L87.125 79.5546H87.7969L92.0859 89.9999H91.3281L89.8281 86.2889H85.0938L83.6016 89.9999H82.8516ZM89.5703 85.6639L89.1719 84.6561C88.3021 82.4947 87.7422 81.065 87.4922 80.3671H87.4609C87.2474 80.9608 86.8958 81.8436 86.4062 83.0155C86.2552 83.3749 85.8958 84.2577 85.3281 85.6639H89.5703ZM87.1719 78.9921L88.4062 77.0546H89.2344L87.8906 78.9921H87.1719Z" fill="#2852CC"/>
</g>
<defs>
<clipPath id="clip0_22_586">
<rect y="-0.00012207" width="108" height="108" rx="21" fill="white"/>
</clipPath>
</defs>
</svg>

<svg xmlns="http://www.w3.org/2000/svg" width="108" height="108" fill="none" xmlns:v="https://vecta.io/nano"><g clip-path="url(#A)"><path d="M108 0H0v108h108V0z" fill="#fff"/><path d="M9.959 17.027c0 .538.109.984.328 1.34.219.346.51.633.875.861.374.228.802.415 1.285.561l1.531.41 2.092.574c.693.21 1.308.501 1.846.875.538.365.971.843 1.299 1.436.337.592.506 1.354.506 2.283 0 .948-.178 1.768-.533 2.461a4.6 4.6 0 0 1-1.463 1.695c-.62.438-1.363.761-2.229.971-.866.219-1.814.328-2.844.328-.474 0-.962-.032-1.463-.096-.492-.055-.966-.132-1.422-.232-.447-.1-.852-.214-1.217-.342s-.652-.255-.861-.383v-2.037a8.46 8.46 0 0 0 1.107.451l1.271.355 1.326.219c.447.055.866.082 1.258.082.638 0 1.244-.055 1.818-.164.583-.109 1.094-.292 1.531-.547a2.84 2.84 0 0 0 1.039-1.039c.255-.447.383-1.003.383-1.668 0-.547-.114-.998-.342-1.354-.219-.355-.515-.647-.889-.875-.374-.237-.807-.428-1.299-.574l-1.531-.41-2.092-.547c-.675-.21-1.281-.497-1.818-.861a4.24 4.24 0 0 1-1.285-1.408c-.319-.574-.479-1.308-.479-2.201 0-.93.164-1.727.492-2.393a4.64 4.64 0 0 1 1.34-1.668c.565-.437 1.226-.761 1.982-.971s1.563-.314 2.42-.314c.975 0 1.882.096 2.721.287.848.182 1.622.424 2.324.725v2.065c-.756-.319-1.54-.579-2.352-.779a11.08 11.08 0 0 0-2.584-.314c-.693 0-1.294.077-1.805.232-.51.146-.934.36-1.271.643-.337.274-.588.611-.752 1.012-.164.392-.246.83-.246 1.313zm27.891 4.32c0-1.23-.159-2.315-.478-3.254s-.761-1.723-1.326-2.351c-.556-.629-1.217-1.103-1.982-1.422-.757-.328-1.572-.492-2.447-.492a6.18 6.18 0 0 0-2.461.492c-.757.319-1.417.793-1.982 1.422-.556.629-.994 1.413-1.312 2.351s-.479 2.023-.479 3.254.16 2.315.479 3.254c.328.93.77 1.709 1.326 2.338.565.629 1.226 1.103 1.983 1.422.766.319 1.59.479 2.475.479.875 0 1.686-.16 2.434-.479a5.4 5.4 0 0 0 1.969-1.422c.565-.629 1.007-1.408 1.326-2.338.319-.939.478-2.023.478-3.254zm2.352 0c0 1.386-.201 2.657-.602 3.814s-.975 2.156-1.723 2.994-1.65 1.495-2.707 1.969c-1.048.465-2.224.697-3.527.697-1.349 0-2.557-.232-3.623-.697-1.066-.474-1.969-1.13-2.707-1.969s-1.303-1.837-1.695-2.994-.588-2.429-.588-3.814c0-1.395.2-2.671.601-3.828.41-1.167.984-2.169 1.723-3.008.747-.839 1.65-1.49 2.707-1.955 1.057-.474 2.242-.711 3.555-.711 1.34 0 2.538.237 3.596.711a7.6 7.6 0 0 1 2.707 1.955c.738.839 1.303 1.841 1.695 3.008.392 1.158.588 2.434.588 3.828zm5.66-4.32c0 .538.109.984.328 1.34.219.346.511.633.875.861.374.228.802.415 1.285.561l1.531.41 2.092.574c.693.21 1.308.501 1.846.875.538.365.971.843 1.299 1.436.337.592.506 1.354.506 2.283 0 .948-.178 1.768-.533 2.461a4.6 4.6 0 0 1-1.463 1.695c-.62.438-1.363.761-2.229.971-.866.219-1.814.328-2.844.328-.474 0-.962-.032-1.463-.096-.492-.055-.966-.132-1.422-.232-.447-.1-.852-.214-1.217-.342s-.652-.255-.861-.383v-2.037a8.46 8.46 0 0 0 1.107.451l1.272.355 1.326.219c.447.055.866.082 1.258.082.638 0 1.244-.055 1.818-.164.583-.109 1.094-.292 1.531-.547a2.84 2.84 0 0 0 1.039-1.039c.255-.447.383-1.003.383-1.668 0-.547-.114-.998-.342-1.354-.219-.355-.515-.647-.889-.875-.374-.237-.807-.428-1.299-.574l-1.531-.41-2.092-.547c-.675-.21-1.281-.497-1.818-.861a4.24 4.24 0 0 1-1.285-1.408c-.319-.574-.478-1.308-.478-2.201 0-.93.164-1.727.492-2.393a4.64 4.64 0 0 1 1.34-1.668c.565-.437 1.226-.761 1.982-.971s1.563-.314 2.42-.314c.975 0 1.882.096 2.721.287.848.182 1.622.424 2.324.725v2.065a15.8 15.8 0 0 0-2.352-.779 11.08 11.08 0 0 0-2.584-.314c-.693 0-1.294.077-1.805.232-.51.146-.934.36-1.271.643-.337.274-.588.611-.752 1.012-.164.392-.246.83-.246 1.313zm2.939-5.824l-2.953-3.377h2.105l1.887 2.092h.055l1.9-2.092h2.105l-2.953 3.377h-2.147z" fill="#5378e4"/><g fill="#f60"><path d="M29.244 38.413l-1.375-.27-3.978 20.287 1.375.27 3.978-20.287z"/><path d="M51.546 62.427l-27.386-5.37-.269 1.374 27.386 5.371.269-1.374z"/><path d="M51.459 62.407l-1.396.103.365 4.94 1.396-.103-.365-4.94z"/><path d="M57.029 67.538l-6.367-1.249-.27 1.374 6.367 1.249.269-1.374z"/><path d="M59.582 64.733l-1.173-.764-2.728 4.188 1.173.764 2.728-4.188z"/><path d="M86.142 69.211l-27.739-5.44-.269 1.374 27.739 5.44.27-1.374z"/><path d="M97.2 15.802l-1.375-.27L85.06 70.426l1.375.27L97.2 15.802z"/></g><g fill="#ffce0b"><path d="M31.125 41.908l-.773-.152-2.79 14.226.773.152 2.79-14.226z"/><path d="M27.717 55.235c4.991.461 10.098-.332 15.216.115h0c2.362.203 4.76.695 6.889 1.845h0c2.136 1.163 3.838 3.035 4.914 5.215l-.699.353c-1.01-2.044-2.604-3.803-4.586-4.874h0c-1.989-1.085-4.286-1.547-6.588-1.754h0c-4.992-.443-10.1.351-15.219-.115l.073-.785z"/><path d="M58.787 43.094l-.84-.163-3.936 19.857.84.163 3.936-19.857z"/><path d="M54.022 62.582c1.315-2.201 3.699-3.55 6.184-3.829h0c2.754-.306 5.503.288 8.099 1.086h0c5.389 1.647 10.341 4.381 15.43 6.645l-.297.688c-5.129-2.28-10.053-5.004-15.346-6.614h0c-2.56-.775-5.21-1.36-7.802-1.058-2.278.261-4.477 1.491-5.629 3.47l-.639-.388z"/><path d="M94.689 15.094l-.875-.163-10.754 52.151.875.163 10.754-52.151z"/></g><path d="M65.296 13.576c2.25-1.277 4.54-2.53 7.02-3.132 1.828-.458 3.772-.424 5.579-.102 6.642 1.19 12.574 3.844 19.067 5.661l.519-.868c-6.377-1.787-12.349-4.45-19.188-5.688h0c-1.959-.357-4.112-.383-6.208.126h0c-2.735.684-5.156 1.989-7.414 3.29l.624.713z" fill="#f60"/><path d="M15.391 79.555h.688v4.75h6.063v-4.75h.688V90h-.687v-5.07h-6.062V90h-.687V79.555zM24.539 90l4.273-10.445h.672L33.773 90h-.758l-1.5-3.711h-4.734L25.289 90h-.75zm6.719-4.336l-.398-1.008-1.68-4.289h-.031l-1.055 2.648-1.078 2.648h4.242zm4.805-6.109l4.703 6.57 1.969 2.82h.047c-.073-.656-.109-1.734-.109-3.234v-6.156h.688V90h-.594l-4.719-6.641-1.953-2.766h-.031c.063.656.094 1.878.094 3.664V90h-.687V79.555h.594zm12.125 0c.922 0 1.638.052 2.148.156 1.286.328 2.242.927 2.867 1.797.625.865.938 1.935.938 3.211 0 1.333-.341 2.458-1.023 3.375-.677.917-1.604 1.5-2.781 1.75-.521.104-1.161.156-1.922.156h-2.273V79.555h2.047zm5.219 5.18c0-1.151-.26-2.099-.781-2.844-.516-.75-1.263-1.258-2.242-1.523-.302-.078-.641-.128-1.016-.148l-1.469-.039h-1.07v9.195h1.125l1.344-.023c.333-.021.646-.065.938-.133.99-.219 1.766-.727 2.328-1.523s.844-1.784.844-2.961zm3.203-5.18h.688v9.82h5.297V90h-5.984V79.555zm7.133 5.227c0-1.036.201-1.969.602-2.797.406-.828.969-1.474 1.687-1.937.719-.469 1.534-.703 2.445-.703.953 0 1.786.234 2.5.703.719.463 1.271 1.107 1.656 1.93.391.823.586 1.758.586 2.805 0 1.031-.201 1.958-.602 2.781s-.961 1.469-1.68 1.938c-.713.463-1.521.695-2.422.695-.964 0-1.807-.232-2.531-.695-.719-.464-1.273-1.104-1.664-1.922-.385-.823-.578-1.755-.578-2.797zm8.734 0c0-1-.177-1.862-.531-2.586-.354-.729-.836-1.281-1.445-1.656a3.72 3.72 0 0 0-2.023-.57c-.734 0-1.406.19-2.016.57-.609.375-1.094.927-1.453 1.656-.354.724-.531 1.586-.531 2.586 0 1.01.18 1.878.539 2.602.359.719.844 1.263 1.453 1.633.614.37 1.297.555 2.047.555a3.73 3.73 0 0 0 2-.555c.599-.37 1.075-.914 1.43-1.633.354-.724.531-1.591.531-2.602zm2.813-5.227l2.023 5.578 1.453 4.164h.031l1.164-3.414 2.273-6.328h.703L79.148 90h-.766l-3.797-10.445h.703zM82.852 90l4.273-10.445h.672L92.086 90h-.758l-1.5-3.711h-4.734L83.602 90h-.75zm6.719-4.336l-.398-1.008-1.68-4.289h-.031l-1.055 2.648-1.078 2.648h4.242zm-2.398-6.672l1.234-1.937h.828l-1.344 1.938h-.719z" fill="#2852cc"/></g><defs><clipPath id="A"><rect width="108" height="108" rx="21" fill="#fff"/></clipPath></defs></svg>
